!!!!SEGMENT: pl-kk--kk-i-2--050-002_anonim--pro-natali-domini-agnus-dei.krn
!!!cenid: 16xx:1728
!!!COM: Anonim
!!!COM-rismID: pe30004985
!!!CDT:
!!!CNT:
!!!OPR: Pro natali Domini
!!!OTL: Agnus Dei
!!!OMV: 002
!!!PDT:
!!!AGN: Sacred; Mass
!!!YEC: Copyright 2022 Narodowy Instytut Fryderyka Chopina (https://polishscores.org)
!!!YEM: License CC-BY-4.0 (https://creativecommons.org/licenses/by/4.0)
!!!SMS-siglum: PL-Kk
!!!SMS-shelfmark: Kk.I.2
!!!SMS-shelfwork: 050-002 M
!!!NIFC-rismSourceID: 300258016
!!!NIFC-rismChildID: 300258068
!!!NIFC-islandoraID: pl-kk:750
!!!URL-pdf-islandora: https://repozytorium.nifc.pl/islandora/object/pl-kk%3A750/datastream/PDF/view#page=86
!!!URL-scan: https://polish.musicsources.pl/pl/lokalizacje/galeria/rekopisy/5828 @EN{Scan on Polish Music Sources Website} @PL{Skany w portalu Dziedzictwo Muzyki Polskiej w otwartym dostępie}
!!!IIIF: https://repozytorium.nifc.pl/islandora/object/pl-kk%3A750/datastream/IIIF/view#page=81
!!!ONB-nifc: Części mszy: Sanctus, Agnus Dei; skany: C: 0086; A: 0190; T: 0289; B: 390
!!!AIN: 1 alto 1 bass 1 soprn 1 tenor
!!!key: g:dor
!!!finalis: g
**kern	**text	**kern	**text	**kern	**text	**kern	**text
*part4	*	*part3	*	*part2	*	*part1	*
*staff4	*	*staff3	*	*staff2	*	*staff1	*
*ICvox	*	*ICvox	*	*ICvox	*	*ICvox	*
*Ibass	*	*Itenor	*	*Ialto	*	*Isoprn	*
*I"BASVS	*	*I"TENOR	*	*I"ALTVS	*	*I"DISCANTVS	*
*I'B	*	*I'T	*	*I'A	*	*I'S	*
*clefF4	*	*clefC4	*	*clefC4	*	*clefC3	*
*k[b-]	*	*k[b-]	*	*k[b-]	*	*k[b-]	*
*g:dor	*	*g:dor	*	*g:dor	*	*g:dor	*
*M3/1	*	*M3/1	*	*M3/1	*	*M3/1	*
*2\right	*	*2\right	*	*2\right	*	*2\right	*
*met(O|3/1)	*	*met(O|3/1)	*	*met(O|3/1)	*	*	*
=1-	=1-	=1-	=1-	=1-	=1-	=1-	=1-
*xywh-pl-kk--i-2--0390:1414,3705,6149,1108	*	*xywh-pl-kk--i-2--0289:1408,474,6364,1167	*	*xywh-pl-kk--i-2--0190:1575,3573,6097,1132	*	*xywh-pl-kk--i-2--0086:7864,565,6574,1075	*
!	!	!LO:N:acc=#	!	!	!	!	!
0GG	A-	0Bn	A-	0G	A-	0d	A-
!LO:N:acc=#	!	!	!	!	!	!	!
!LO:TX:t=P:problem:kreska pseudotaktowa	!	!	!	!	!	!	!
1BBn	-gnus	1d	-gnus	1G	-gnus	1d	-gnus
=2-	=2-	=2-	=2-	=2-	=2-	=2-	=2-
1C	De-	1c	De-	1G	De-	1e-X	De-
1E-X	-i	1c	-i	1G	-i	1e-	-i
!LO:TX:t=P:problem:kreska pseudotaktowa	!	!	!	!	!	!	!
1G	qui	1B-X	qui	1G	qui	1d	qui
=3-	=3-	=3-	=3-	=3-	=3-	=3-	=3-
1F	tol-	1A	tol-	1c	tol-	1f	tol-
1F	.	1A	.	1c	-lis	1f	.
!LO:TX:t=P:problem:kreska pseudotaktowa	!	!	!	!	!	!	!
1F	-lis	1A	-lis	1c	pec-	1f	-lis
=4-	=4-	=4-	=4-	=4-	=4-	=4-	=4-
1.BB-	pec-	1.B-	pec-	1.d	-ca-	1.f	pec-
2F\	-ca-	2A/	-ca-	2c\	.	2f\	-ca-
!LO:TX:t=P:problem:kreska pseudotaktowa	!	!	!	!	!	!	!
1G	-ta	1G	-ta	1B-	-ta	1d	-ta
=5-	=5-	=5-	=5-	=5-	=5-	=5-	=5-
0D	mun-	0F	mun-	0A	mun-	0d	mun-
!LO:TX:t=P:problem:kreska pseudotaktowa	!	!	!	!	!	!	!
1D	-di	1F	-di	1A	-di	1d	-di
=6-	=6-	=6-	=6-	=6-	=6-	=6-	=6-
0BB-	pec-	0B-	pec-	(<0d	pec-	2d\	pec-
.	.	.	.	.	.	2e-X\	.
.	.	.	.	.	.	2f\	-ca-
.	.	.	.	.	.	2g\	.
!LO:TX:t=P:problem:kreska pseudotaktowa	!	!	!	!	!	!	!
1C	-ca-	1G	-ca-	1e-X)	ca-	1c	.
=7-	=7-	=7-	=7-	=7-	=7-	=7-	=7-
*	*	*	*	*col	*	*	*
1D	-ta	0B-	-ta	1d	-ta	1f	-ta
*lig	*	*	*	*	*	*lig	*
1E-X	mun-	.	.	0c	mun-	1g	mun-
!LO:TX:t=P:problem:kreska pseudotaktowa	!	!	!	!	!	!	!
1F	.	1A	mun-	.	.	1f	.
*Xlig	*	*	*	*Xcol	*	*Xlig	*
=8-	=8-	=8-	=8-	=8-	=8-	=8-	=8-
!LO:TX:t=P:problem:kreska pseudotaktowa	!	!	!	!	!	!	!
0.BB-	-di	0.d,	-di	0.B-	-di	0.f	-di
=9-	=9-	=9-	=9-	=9-	=9-	=9-	=9-
0BB-	mi-	0B-	mi-	0d	mi-	0f	mi-
!LO:TX:t=P:problem:kreska pseudotaktowa	!	!	!	!	!	!	!
1BB-	-ſe-	1B-	ſe-	1d	-ſe-	1f	-ſe-
=10-	=10-	=10-	=10-	=10-	=10-	=10-	=10-
0BB-	-re-	0B-	-re-	0d	-re-	0f	-re-
!LO:TX:t=P:problem:kreska pseudotaktowa	!	!	!	!	!	!	!
!LO:SIC:v:t=custos F	!	!	!	!	!	!	!
1BB-	-re	1B-	-re	1d	-re	1f	-re
=11-	=11-	=11-	=11-	=11-	=11-	=11-	=11-
*	*ij	*	*ij	*	*ij	*	*ij
*xywh-pl-kk--i-2--0390:8159,684,4725,902	*	*	*	*	*	*	*
!LO:PB:g=original	!	!	!	!	!	!	!
1.F	mi-	1.A	mi-	1.c	mi-	1.f	mi-
2F\	-ſe-	2A/	-ſe-	2c\	-ſe-	2f\	-ſe-
!LO:TX:t=P:problem:kreska pseudotaktowa	!	!LO:SIC:v:t=custos G	!	!	!	!LO:SIC:v:t=custos d	!
1F	-re-	1A	-re-	1c	re-	1f	-re-
=12-	=12-	=12-	=12-	=12-	=12-	=12-	=12-
*	*	*xywh-pl-kk--i-2--0289:1760,1306,5948,1029	*	*	*	*xywh-pl-kk--i-2--0086:8039,1466,6078,928	*
!	!	!LO:LB:g=original	!	!	!	!LO:LB:g=original	!
*col	*	*	*	*col	*	*col	*
1G	-re	1G	-re	1B-	-re	1d	-re
*	*Xij	*lig	*	*	*Xij	*	*Xij
!LO:TX:t=P:problem:kreska pseudotaktowa	!	!	!	!LO:SIC:v:t=custos G	!	!	!
0D	no-	1G	no-	0A	no-	0d	no-
!	!	!LO:TX:t=P:problem:# above	!	!	!	!	!
.	.	1F#X	.	.	.	.	.
*Xcol	*	*Xlig	*	*Xcol	*	*Xcol	*
=13-	=13-	=13-	=13-	=13-	=13-	=13-	=13-
*	*	*	*	*xywh-pl-kk--i-2--0190:8132,545,6475,943	*	*	*
!	!	!	!	!LO:LB:g=original	!	!	!
1GG	-bis	1B-X	-bis	1G	-bis	1d	-bis
*	*ij	*	*Xij	*	*ij	*	*
1.GG	mi-	1.G	mi-	1.B-	mi-	1.d	mi-
!LO:TX:t=P:problem:kreska pseudotaktowa	!	!	!	!	!	!	!
2GG/	-ſe-	2G/	-ſe-	2B-\	-ſe-	2d\	-ſe-
=14-	=14-	=14-	=14-	=14-	=14-	=14-	=14-
0D	-re-	0F#X	-re-	0A	re-	0d	-re-
!LO:TX:t=P:problem:kreska pseudotaktowa	!	!	!	!	!	!	!
1G	-re	1G	-re	1B-	-re	1d	-re
=15-	=15-	=15-	=15-	=15-	=15-	=15-	=15-
*	*	*	*ij	*	*	*	*ij
0F	no-	0A	mi-	0c	mi-	0f	mi-
!LO:TX:t=P:problem:kreska pseudotaktowa	!	!	!	!	!	!	!
1F	-bis	1A	-ſe-	1c	-ſe-	1f	-ſe-
=16-	=16-	=16-	=16-	=16-	=16-	=16-	=16-
2BB-/	mi-	0B-	-re-	0d	-re-	0.f	-re-
2C/	.	.	.	.	.	.	.
2D/	-ſe-	.	.	.	.	.	.
2Eny\	.	.	.	.	.	.	.
!LO:TX:t=P:problem:kreska pseudotaktowa	!	!	!	!	!	!	!
1F	-re-	1A	.	1c	.	.	.
=17-	=17-	=17-	=17-	=17-	=17-	=17-	=17-
*col	*	*	*	*col	*	*	*
1G	-re	0G	-re	1B-	-re	1d	-re
*	*	*	*Xij	*	*	*	*Xij
!LO:TX:t=P:problem:kreska pseudotaktowa	!	!	!	!	!	!	!
0D	no-	.	.	0A	no-	0d	no-
!	!	!LO:TX:t=P:problem:# above	!	!	!	!	!
.	.	1F#X	no-	.	.	.	.
*Xcol	*	*	*	*Xcol	*	*	*
=18-	=18-	=18-	=18-	=18-	=18-	=18-	=18-
!	!	!LO:N:vis=0	!	!LO:N:acc=#:vis=0	!	!LO:N:vis=0	!
0.GG;;l	-bis	0.G;	-bis	0.Bn;	-bis	0.d;	-bis
*	*Xij	*	*	*	*Xij	*	*
=19||	=19||	=19||-	=19||-	=19||-	=19||-	=19||-	=19||-
*M3/1	*	*M3/1	*	*M3/1	*	*M3/1	*
*xywh-pl-kk--i-2--0390:8010,1428,6190,918	*	*	*	*	*	*	*
!LO:LB:g=original	!	!	!	!	!	!	!
0G	A-	0G	A-	0B-y	A-	0d	A-
!LO:TX:t=P:problem:kreska pseudotaktowa	!	!	!	!	!	!	!
1D	-gnus	1F#X	-gnus	1A	-gnus	1d	-gnus
=20-	=20-	=20-	=20-	=20-	=20-	=20-	=20-
1G	De-	1.G	De-	1B-	De-	1d	De-
1G	-i	.	.	1B-	-i	1d	-i
.	.	2B-\	-i	.	.	.	.
!LO:TX:t=P:problem:kreska pseudotaktowa	!	!	!	!	!	!	!
1D	qui	1B-	qui	1d	qui	1f	qui
=21-	=21-	=21-	=21-	=21-	=21-	=21-	=21-
*col	*	*col	*	*col	*	*col	*
1F	tol-	1A	tol-	1c	tol-	1f	tol-
0G	.	0G	.	0B-	-lis	0d	-lis
*Xcol	*	*Xcol	*	*Xcol	*	*Xcol	*
=22-	=22-	=22-	=22-	=22-	=22-	=22-	=22-
0D	-lis	0Fny	lis	0A	pec-	0d	pec-
!LO:TX:t=P:problem:kreska pseudotaktowa	!	!LO:SIC:v:t=custos B-	!	!	!	!	!
1D	pec-	1D	pec-	1A	-ca-	1f	-ca-
=23-	=23-	=23-	=23-	=23-	=23-	=23-	=23-
*	*	*xywh-pl-kk--i-2--0289:1721,2137,5997,989	*	*	*	*	*
!	!	!LO:LB:g=original	!	!	!	!	!
2BB-/	-ca-	1.B-	-ca-	0.d	-ta	0.f	-ta
2AA/	.	.	.	.	.	.	.
2BB-/	.	.	.	.	.	.	.
2C/	.	2B-\	-ta	.	.	.	.
2D/	.	1B-	pec-	.	.	.	.
!LO:TX:t=P:problem:kreska pseudotaktowa	!	!	!	!	!	!	!
2E\	.	.	.	.	.	.	.
=24-	=24-	=24-	=24-	=24-	=24-	=24-	=24-
1F	ta	0A	-ca-	1c	pec-	0f	pec-
1F	pec-	.	.	1c	-ca-	.	.
!LO:TX:t=P:problem:kreska pseudotaktowa	!	!	!	!LO:SIC:v:t=custos B-	!	!	!
1D	-ca-	1B-	-ta	1d	.	1f	-ca-
=25-	=25-	=25-	=25-	=25-	=25-	=25-	=25-
*	*	*	*	*xywh-pl-kk--i-2--0190:8209,1319,5869,963	*	*	*
!	!	!	!	!LO:LB:g=original	!	!	!
1E-X	-ta	0G	mun-	1B-	-ta	1.e-X	-ta
*	*	*	*	*col	*	*	*
1C	mun-	.	.	0A	mun-	.	.
.	.	.	.	.	.	2e-\	mun-
!LO:TX:t=P:problem:kreska pseudotaktowa	!	!	!	!	!	!LO:SIC:v:t=custos d	!
1D	.	1F#X	.	.	.	1d	.
*	*	*	*	*Xcol	*	*	*
=26-	=26-	=26-	=26-	=26-	=26-	=26-	=26-
*	*	*	*	*	*	*xywh-pl-kk--i-2--0086:8103,2174,6032,983	*
!LO:TX:t=P:problem:kreska pseudotaktowa	!	!	!	!	!	!LO:LB:g=original	!
0.GG	-di	0.G	di	0.B-X	-di	0.d	-di
=27-	=27-	=27-	=27-	=27-	=27-	=27-	=27-
0D	mi-	0F#X	mi-	0A	mi-	0d	mi-
!LO:TX:t=P:problem:kreska pseudotaktowa	!	!	!	!	!	!	!
1G	-ſe-	1G	-ſe-	1B-	-ſe-	1d	-ſe-
=28-	=28-	=28-	=28-	=28-	=28-	=28-	=28-
*lig	*	*lig	*	*	*	*lig	*
1F	-re-	1A	-re-	0c	-re-	1f	-re-
1C	.	1G	.	.	.	1eny	.
*Xlig	*	*Xlig	*	*	*	*Xlig	*
!LO:TX:t=P:problem:kreska pseudotaktowa	!	!	!	!	!	!	!
1D	-re	1Fny	-re	1A	-re	1d	-re
=29-	=29-	=29-	=29-	=29-	=29-	=29-	=29-
*col	*	*	*	*	*	*col	*
1BB-	no-	0f	no-	2B-/	no-	1d	no-
.	.	.	.	2A/	.	.	.
!LO:SIC:v:t=custos FF	!	!	!	!	!	!	!
!LO:TX:t=P:problem:kreska pseudotaktowa	!	!	!	!	!	!	!
0C	.	.	.	2G/	.	0c	-bis
.	.	.	.	2F/	.	.	.
.	.	1e	.	1G	.	.	.
=30-	=30-	=30-	=30-	=30-	=30-	=30-	=30-
*Xcol	*	*	*	*	*	*Xcol	*ij
*xywh-pl-kk--i-2--0390:8242,2174,5867,960	*	*	*	*	*	*	*
!LO:LB:g=original	!	!	!	!	!	!	!
1FF	-bis	1f	-bis	1A,<	-bis	0.c	mi-
(2F\	mi-	(2A\	mi-	1.c	mi-	.	.
2G\)	.	2B-\)	.	.	.	.	.
(2A\	-ſe-	(2c\	-ſe-	.	.	.	.
!LO:TX:t=P:problem:kreska pseudotaktowa	!	!	!	!	!	!	!
2F\)	.	2A\)	.	2c\	-ſe-	.	.
=31-	=31-	=31-	=31-	=31-	=31-	=31-	=31-
0B-	-re-	2B-\	-re-	0d	-re-	0f	-ſe-
.	.	2c\	.	.	.	.	.
.	.	2d\	.	.	.	.	.
.	.	2e\	.	.	.	.	.
*	*	*	*	*	*	*col	*
!LO:TX:t=P:problem:kreska pseudotaktowa	!	!	!	!	!	!	!
1F	-re	2f\	.	1c	.	1f	-re-
.	.	2A\	-re	.	.	.	.
=32-	=32-	=32-	=32-	=32-	=32-	=32-	=32-
*	*ij	*	*	*	*	*	*
1.D	mi-	0.d	no-	0.f	-re	(<0a	-re
2C/	-ſe-	.	.	.	.	.	.
!LO:N:acc=#	!	!	!	!	!	!	!
!LO:TX:t=P:problem:kreska pseudotaktowa	!	!	!	!	!	!	!
1BBn	-re-	.	.	.	.	1g)	.
*col	*	*	*	*col	*	*Xcol	*
=33-	=33-	=33-	=33-	=33-	=33-	=33-	=33-
1C	-re	0c	.	1e-X	no-	0.g	no-
*	*Xij	*	*	*	*	*	*
0GG	no-	.	.	0d	.	.	.
*Xcol	*	*	*	*Xcol	*	*	*
!	!	!LO:SIC:v:t=custos c	!	!	!	!	!
!	!	!LO:N:acc=#	!	!	!	!	!
!	!	!LO:TX:t=P:problem:# below	!	!	!	!	!
.	.	1Bn	.	.	.	.	.
=34-	=34-	=34-	=34-	=34-	=34-	=34-	=34-
*	*	*xywh-pl-kk--i-2--0289:1760,2939,5750,1009	*	*	*	*	*
!LO:TX:t=P:problem:kreska pseudotaktowa	!	!LO:LB:g=original	!	!	!	!	!
0.C	-bis	0.c	bis	0.c	-bis	0.e	-bis
*	*	*	*ij	*	*ij	*	*Xij
=35-	=35-	=35-	=35-	=35-	=35-	=35-	=35-
0G	mi-	0d	mi-	0B-	mi-	0g	mi-
1G	-ſe-	1d	-ſe-	1B-	-ſe-	1g	-ſe
=36-	=36-	=36-	=36-	=36-	=36-	=36-	=36-
0B-	-re-	0B-y	-re-	0d	-re-	2d\	re-
.	.	.	.	.	.	2e\	.
.	.	.	.	.	.	2f\	.
.	.	.	.	.	.	2d\	.
!LO:TX:t=P:problem:kreska pseudotaktowa	!	!	!	!	!	!	!
1A	-re	1c	-re	1c	-re	2e\	.
.	.	.	.	.	.	2f\	.
=37-	=37-	=37-	=37-	=37-	=37-	=37-	=37-
*	*	*col	*	*	*	*	*
1G	no-	1d	no-	1B-	no-	0g	-re
*col	*	*	*	*	*	*	*
0D	.	0d	-bis	0A	-bis	.	.
.	.	.	.	.	.	1f#X	no-
*Xcol	*	*Xcol	*	*	*	*	*
=38-	=38-	=38-	=38-	=38-	=38-	=38-	=38-
!LO:TX:t=P:problem:kreska pseudotaktowa	!	!	!	!LO:SIC:v:t=custos A	!	!	!
0.GG	-bis	0.d	mi-	0.B-X	mi-	0.g	-bis
=39-	=39-	=39-	=39-	=39-	=39-	=39-	=39-
*	*	*	*	*xywh-pl-kk--i-2--0190:8199,2053,6177,1042	*	*	*
!	!	!	!	!LO:LB:g=original	!	!	!
*	*ij	*	*	*	*	*	*ij
0D	mi-	0d	-ſe-	0A	ſe-	0f#X	mi-
1G	-ſe-	1d	-re-	1B-	-re-	1g	-ſe-
=40-	=40-	=40-	=40-	=40-	=40-	=40-	=40-
*	*	*lig	*	*	*	*	*
1.F	-re-	1f	-re	2c\	-re	1.a	-re-
.	.	.	.	2B-\	no-	.	.
*	*	*	*	*col	*	*	*
.	.	1c	.	0A	-bis	.	.
2Eny\	-re	.	.	.	.	2g\	-re
*	*	*Xlig	*	*	*	*	*
!LO:TX:t=P:problem:kreska pseudotaktowa	!	!	!	!	!	!LO:SIC:v:t=custos f	!
1D	no-	1d	no-	.	.	1fny	no-
=41-	=41-	=41-	=41-	=41-	=41-	=41-	=41-
*col	*	*col	*	*	*	*	*
*	*	*	*	*	*	*xywh-pl-kk--i-2--0086:8131,3020,6078,882	*
!	!	!	!	!	!	!LO:LB:g=original	!
1BB-y	-bis	1d	-bis	1B-	mi-	1f	-bis
!LO:SIC:v:t=custos FF	!	!	!	!	!	!	!
*	*	*	*	*	*	*lig	*
0C	mi-	0c	mi-	0G	-ſe-	1f	mi-
.	.	.	.	.	.	1e	.
*Xcol	*	*Xcol	*	*Xcol	*	*Xlig	*
=42-	=42-	=42-	=42-	=42-	=42-	=42-	=42-
*xywh-pl-kk--i-2--0390:8234,2853,5950,1084	*	*	*	*	*	*	*
!LO:LB:g=original	!	!	!	!	!	!	!
!LO:TX:t=P:problem:kreska pseudotaktowa	!	!	!	!	!	!	!
0.FF	-ſe-	0.c	-ſe-	0.A	-re-	0.f	-ſe-
=43-	=43-	=43-	=43-	=43-	=43-	=43-	=43-
0B-	-re-	0B-	-re-	0d	-re	0f	-re-
!LO:TX:t=P:problem:kreska pseudotaktowa	!	!	!	!	!	!	!
1G	-re	1B-	-re	1d	no-	1g	-re
=44-	=44-	=44-	=44-	=44-	=44-	=44-	=44-
1.A	no-	0A	no-	0c	.	2e\	no-
.	.	.	.	.	.	4f\	.
.	.	.	.	.	.	4g\	.
*	*	*	*	*	*	*col	*
.	.	.	.	.	.	0a	.
2G\	.	.	.	.	.	.	.
!LO:TX:t=P:problem:kreska pseudotaktowa	!	!	!	!	!	!	!
1F#X	.	1.d	.	1d	.	.	.
=45-	=45-	=45-	=45-	=45-	=45-	=45-	=45-
*col	*	*	*	*col	*	*	*
1G	.	.	.	1B-	.	1d	.
.	.	2G/	.	.	.	.	.
*	*	*lig	*	*	*	*	*
!LO:TX:t=P:problem:kreska pseudotaktowa	!	!	!	!	!	!	!
0D	.	1G	.	0A	.	0d	.
*Xcol	*	*	*	*Xcol	*	*Xcol	*
!	!	!LO:TX:t=P:problem:# above	!	!	!	!	!
.	.	1F#X	.	.	.	.	.
*	*	*Xlig	*	*	*	*	*
=46-	=46-	=46-	=46-	=46-	=46-	=46-	=46-
!	!	!	!	!LO:N:acc=#	!	!	!
0GG;	-bis	0G;	-bis	0Bn;	-bis	0d;;l	-bis
*	*Xij	*	*Xij	*	*Xij	*	*Xij
1ryy	.	1ryy	.	1ryy	.	1ryy	.
=47||	=47||	=47||-	=47||-	=47||-	=47||-	=47||-	=47||-
*	*	*M3/1	*	*M3/1	*	*M3/1	*
*	*	*met(O|3/1)	*	*	*	*	*
*	*	*xywh-pl-kk--i-2--0289:1542,3790,6057,969	*	*	*	*	*
!LO:TX:t=P:problem:kreska pseudotaktowa	!	!LO:LB:g=original	!	!	!	!	!
0G	A-	0B-	A-	0G	A-	0d	A-
1Fny	-gnus	1c	-gnus	1A	-gnus	1f	-gnus
=48-	=48-	=48-	=48-	=48-	=48-	=48-	=48-
1BB-	De-	1d	De-	1B-y	De-	1f	De-
1BB-	-i	1d	-i	1B-	-i	1f	-i
!LO:TX:t=P:problem:kreska pseudotaktowa	!	!	!	!	!	!	!
1BB-	qui	1d	qui	1B-	qui	1f	qui
=49-	=49-	=49-	=49-	=49-	=49-	=49-	=49-
1F	tol-	1c	tol-	1A	tol-	1f	tol-
1F	-lis	1c	-lis	1A	-lis	1f	-lis
!LO:TX:t=P:problem:kreska pseudotaktowa	!	!	!	!	!	!	!
1F	pec-	1c	pec-	1A	pec-	1f	pec-
=50-	=50-	=50-	=50-	=50-	=50-	=50-	=50-
1.BB-	-ca-	1.d	-ca-	1.B-	-ca-	1.f	-ca-
2FF/	-ta	2c\	-ta	2A/	-ta	2f\	-ta
!LO:TX:t=P:problem:kreska pseudotaktowa	!	!	!	!LO:SIC:v:t=custos F	!	!	!
1GG	mun-	1B-	mun-	1G	mun-	1d	mun-
=51-	=51-	=51-	=51-	=51-	=51-	=51-	=51-
*	*	*	*	*xywh-pl-kk--i-2--0190:8179,2788,5919,1112	*	*	*
!	!	!	!	!LO:LB:g=original	!	!	!
!	!	!	!	!LO:N:acc=-	!	!	!
0D	-di	0A	-di	0Fn	-di	0d	-di
!LO:TX:t=P:problem:kreska pseudotaktowa	!	!	!	!	!	!LO:SIC:v:t=custos g	!
1D	pec-	1A	pec-	1A	pec-	1f	pec-
=52-	=52-	=52-	=52-	=52-	=52-	=52-	=52-
*	*	*	*	*	*	*xywh-pl-kk--i-2--0086:8112,3618,6225,1177	*
!	!	!	!	!	!	!LO:LB:g=original	!
2G\	-ca-	1.B-	-ca-	1.G	-ca-	1g	-ca-
2A\	.	.	.	.	.	.	.
2B-\	-ta-	.	.	.	.	1f	-ta
2D/	.	2B-\	-ta	2B-\	-ta	.	.
!LO:SIC:v:t=custos BB-	!	!	!	!	!	!	!
!LO:TX:t=P:problem:kreska pseudotaktowa	!	!	!	!	!	!	!
1F	-mun-	1c	mun-	1A	mun-	1f	mun-
=53-	=53-	=53-	=53-	=53-	=53-	=53-	=53-
*xywh-pl-kk--i-2--0390:8192,3747,5760,1026	*	*	*	*	*	*	*
!LO:LB:g=original	!	!	!	!	!	!	!
1BB-	-di	1d	.	1B-	.	1f	.
1BB-	Do-	1d	.	1B-	.	1f	.
!LO:TX:t=P:problem:kreska pseudotaktowa	!	!	!	!	!	!	!
1BB-	-na	1d	-di	1B-	-di	1f	-di
=54-	=54-	=54-	=54-	=54-	=54-	=54-	=54-
!LO:TX:t=P:problem:kreska pseudotaktowa	!	!	!	!	!	!	!
0.F	no-	0.c	Do-	0A	do-	0f	Do-
.	.	.	.	1A	-na	1f	-na
=55-	=55-	=55-	=55-	=55-	=55-	=55-	=55-
*	*	*col	*	*	*	*lig	*
1G	.	1B-	-na	0G	no-	1d	no-
*lig	*	*	*	*	*	*	*
1C	bis	0A	no-	.	.	1e-X	.
*	*	*Xcol	*	*	*	*Xlig	*
!LO:TX:t=P:problem:kreska pseudotaktowa	!	!	!	!	!	!	!
1D	.	.	.	1F#X	-bis	1d	-bis
*Xlig	*	*	*	*	*	*	*
=56-	=56-	=56-	=56-	=56-	=56-	=56-	=56-
1GG	pa-	1B-X	-bis	1G	pa-	1d	pa-
1G	-ce(m)	1B-	pa-	1.d	-ce(m)	1g	.
*	*ij	*	*	*	*	*	*
!LO:TX:t=P:problem:kreska pseudotaktowa	!	!LO:SIC:v:t=custos c	!	!	!	!	!
1B-	Do-	1B-	-ce(m)	.	.	1f	-ce(m)
*	*	*	*	*	*ij	*	*
.	.	.	.	2d\	do-	.	.
=57-	=57-	=57-	=57-	=57-	=57-	=57-	=57-
*	*	*xywh-pl-kk--i-2--0289:8075,593,6472,1078	*	*	*	*	*
!	!	!LO:PB:g=original	!	!	!	!	!
*	*	*	*ij	*	*	*	*ij
1.A	-na	2c\	Do-	0.c	-na	1.f	Do-
.	.	2B-\	.	.	.	.	.
.	.	1A	-na	.	.	.	.
2G\	no-	.	.	.	.	2g\	-na
!LO:TX:t=P:problem:kreska pseudotaktowa	!	!	!	!	!	!	!
1F#X	-bis	1d	no-	.	.	1a	no-
=58-	=58-	=58-	=58-	=58-	=58-	=58-	=58-
*	*	*	*	*col	*	*	*
1G	pa-	0.d	-bis	1B-	no-	1g	-bis
!LO:TX:t=P:problem:kreska pseudotaktowa	!	!	!	!	!	!	!
0D	-cem	.	.	0A	.	1g	pa-
*	*	*	*	*Xcol	*	*	*
.	.	.	.	.	.	1f#X	-cem
=59-	=59-	=59-	=59-	=59-	=59-	=59-	=59-
!	!	!	!	!LO:N:acc=#	!	!	!
1GG	Do-	1d	pa-	1Bn	-bis	1g	Do-
1.GG	na	1.d	-cem	1.B	pa-	1.g	-na
!LO:TX:t=P:problem:kreska pseudotaktowa	!	!	!	!	!	!	!
2GG/	no-	2d\	Do-	2B\	-cem	2g\	no-
=60-	=60-	=60-	=60-	=60-	=60-	=60-	=60-
0C	.	0e-X	-na	0c	.	0g	.
!LO:N:acc=#	!	!	!	!	!	!	!
1BBn	-bis	1d	no-	1d	-na	1g	-bis
=61-	=61-	=61-	=61-	=61-	=61-	=61-	=61-
*M2/1	*	*M2/1	*	*M2/1	*	*M2/1	*
*met(C|)	*	*met(C|)	*	*met(C|)	*	*met(C|)	*
1C	pa-	4d\	-bis	1e-X	pa-	1g	pa-
.	.	8c\L	pa-	.	.	.	.
.	.	8B-\J	.	.	.	.	.
.	.	2c\	.	.	.	.	.
!	!	!LO:N:acc=#:vis=0	!	!LO:N:vis=0	!	!	!
1GG;;l	-cem	1Bn;;	-cem	1d;<	-cem	1g;;l	-cem
*	*Xij	*	*Xij	*	*Xij	*	*Xij
!	!	!	!	!	!	!LO:TX:t=AMDG.	!
==-	==-	==-	==-	==-	==-	==-	==-
*-	*-	*-	*-	*-	*-	*-	*-
!!!system-decoration: [(s1,s2,s3,s4)]
!!!RDF**kern: l = terminal long
!!!RDF**kern: > = above
!!!RDF**kern: < = below
!!!ENC: Marta Opryszak
!!!END: 2022-05-03
!!!ENC: Krzysztof Stępień
!!!END: 2022-05-11
!!!ENC-iiif: Marta Opryszak
!!!END-iiif: 2022-08-26
